X: 42608
T: Whinham's
R: reel
M: 4/4
K: Gmajor
|:D2|GABA G2D2|E2G2 D4|E2G2 D2G2|B2A2 A2BA|
GABA G2D2|E2G2 D4|E2G2 F2dc|B2G2 G2:|
|:(3def|g2G2 B2g2|f2G2 c2e2|d2D2 G2B2|cBAB cdef|
g2G2 B2g2|f2G2 c2e2|d2D2 F2dc|B2G2 G2:|
|:(3DEF|G2 B2 BcBA|G2 E2 E2 G2|F2 A2 D2 EF|GABc d2 (3DEF|
G2 B2 BcBA|G2 E2 E2 G2|F2 A2 D2 EF|G2 G2 G2:|
(3Bc^c|d2 B2 d2 g2|f2 e2 e4|F2 A2 c2 e2|e3 d2 d2 z2|
d2 B2 d2 g2|f2 e2 e2 AG|FGAB cdef|g2 g2 g2:|
z2|B2 c2 d2 g2|d6 (3DEF|G2 A2 B2 c2|B6 (3BcB|
A2 B2 c2 A2|f6 e2|e2 d2 ^c2e2|dddd d2 z2|
B2 c2 d2 g2|d6 (3DEF|G2 A2 B2 c2|B6 (3BcB|
A2 c2 f2 e2|e2 d2 e4|d2 c2 B2 A2|G4 z2 G2||

